X:199
T:B199-  How happy's the lover
Q:1/4=120
L:1/4
M:3/4
K:A mixolydian
e|ccd|eee|fg/2f/2 e/2d/2|e2e|\
e/2d/2dd|d/2c/2cc|B/2d/2 c/2B/2A|^G3/4F/4EB|\
c3/2B/2c|ddc|^d3/2c/2d|e2d/2c/2|\
f/2e/2 d/2c/2 B/2A/2|^GGB|eec|fff/2e/2|\
c3/2d/2B|A3/2B/2^G|AAz||zcA|ee3/2^d/2|e2d/2c/2|Bcd|c2B|\
ABc|ddc|BcB/2A/2|G2E|\
AAF|B2B/2c/2|dBA|e2d/2c/2|\
(d/2e/2) (e/2d/4e/4)f|e3/2d/2c|A3/2B/2^G|A2|]

